icons/bookmarks.svg

<svg width="24" height="24" viewBox="0 0 24 24" fill="none" xmlns="http://www.w3.org/2000/svg">
<path fill-rule="evenodd" clip-rule="evenodd" d="M11 3.62756C10.3142 3.62756 9.75 4.19178 9.75 4.87756V5.12756H13C14.5142 5.12756 15.75 6.36335 15.75 7.87756V15.3485L17.9409 17.3641C17.9707 17.372 18.0231 17.3729 18.0971 17.3297C18.1953 17.2725 18.25 17.1793 18.25 17.0776V4.87756C18.25 4.19178 17.6858 3.62756 17 3.62756H11ZM8.25 4.87756V5.12756H7C6.22956 5.12756 5.52925 5.38765 5.01967 5.89723C4.51009 6.40682 4.25 7.10713 4.25 7.87756V20.0776C4.25 21.4114 5.63608 22.3351 6.8721 21.6288L6.94791 21.5854L9.77159 18.95H9.77237H9.77314H9.77392H9.7747H9.77549H9.77627H9.77705H9.77784H9.77863H9.77941H9.7802H9.78099H9.78179H9.78258H9.78337H9.78417H9.78497H9.78576H9.78656H9.78736H9.78816H9.78897H9.78977H9.79058H9.79138H9.79219H9.793H9.79381H9.79462H9.79543H9.79624H9.79706H9.79787H9.79869H9.79951H9.80032H9.80114H9.80196H9.80278H9.80361H9.80443H9.80525H9.80608H9.80691H9.80773H9.80856H9.80939H9.81022H9.81105H9.81188H9.81272H9.81355H9.81439H9.81522H9.81606H9.81689H9.81773H9.81857H9.81941H9.82025H9.82109H9.82194H9.82278H9.82362H9.82447H9.82531H9.82616H9.82701H9.82785H9.8287H9.82955H9.8304H9.83125H9.8321H9.83296H9.83381H9.83466H9.83552H9.83637H9.83723H9.83808H9.83894H9.8398H9.84065H9.84151H9.84237H9.84323H9.84409H9.84495H9.84581H9.84668H9.84754H9.8484H9.84927H9.85013H9.85099H9.85186H9.85273H9.85359H9.85446H9.85532H9.85619H9.85706H9.85793H9.8588H9.85967H9.86054H9.86141H9.86228H9.86315H9.86402H9.86489H9.86576H9.86663H9.86751H9.86838H9.86925H9.87013H9.871H9.87187H9.87275H9.87362H9.8745H9.87537H9.87625H9.87713H9.878H9.87888H9.87975H9.88063H9.88151H9.88239H9.88326H9.88414H9.88502H9.88589H9.88677H9.88765H9.88853H9.88941H9.89029H9.89116H9.89204H9.89292H9.8938H9.89468H9.89556H9.89644H9.89731H9.89819H9.89907H9.89995H9.90083H9.90171H9.90259H9.90347H9.90435H9.90522H9.9061H9.90698H9.90786H9.90874H9.90962H9.9105H9.91137H9.91225H9.91313H9.91401H9.91489H9.91576H9.91664H9.91752H9.91839H9.91927H9.92015H9.92102H9.9219H9.92278H9.92365H9.92453H9.9254H9.92628H9.92715H9.92803H9.9289H9.92978H9.93065H9.93152H9.9324H9.93327H9.93414H9.93501H9.93588H9.93675H9.93763H9.9385H9.93937H9.94024H9.9411H9.94197H9.94284H9.94371H9.94458H9.94545H9.94631H9.94718H9.94804H9.94891H9.94977H9.95064H9.9515H9.95236H9.95323H9.95409H9.95495H9.95581H9.95667H9.95753H9.95839H9.95925H9.96011H9.96096H9.96182H9.96268H9.96353H9.96439H9.96524H9.96609H9.96695H9.9678H9.96865H9.9695H9.97035H9.9712H9.97205H9.9729H9.97374H9.97459H9.97543H9.97628H9.97712H9.97797H9.97881H9.97965H9.98049H9.98133H9.98217H9.98301H9.98385H9.98468H9.98552H9.98635H9.98719H9.98802H9.98885H9.98968H9.99051H9.99134H9.99217H9.993H9.99382H9.99465H9.99547H9.9963H9.99712H9.99794H9.99876H9.99958H10.0004H10.0012H10.002H10.0028H10.0037H10.0045H10.0053H10.0061H10.0069H10.0077H10.0085H10.0093H10.0101H10.0109H10.0117H10.0125H10.0133H10.0141H10.0149H10.0157H10.0165H10.0173H10.0181H10.0189H10.0197H10.0205H10.0213H10.0221H10.0229H10.0236H10.0244H10.0252H10.026H10.0268H10.0275H10.0283H10.0291H10.0299H10.0306H10.0314H10.0322H10.0329H10.0337H10.0345H10.0352H10.036H10.0368H10.0375H10.0383H10.039H10.0398H10.0405H10.0413H10.042H10.0428H10.0435H10.0443H10.045H10.0458H10.0465H10.0473H10.048H10.0487H10.0495H10.0502H10.0509H10.0517H10.0524H10.0531H10.0538H10.0546H10.0553H10.056H10.0567H10.0574H10.0582H10.0589H10.0596H10.0603H10.061H10.0617H10.0624H10.0631H10.0638H10.0645H10.0652H10.0659H10.0666H10.0673H10.068H10.0687H10.0694H10.07H10.0707H10.0714H10.0721H10.0728H10.0734H10.0741H10.0748H10.0754H10.0761H10.0768H10.0774H10.0781H10.0788H10.0794H10.0801H10.0807H10.0814H10.082H10.0827H10.0833H10.084H10.0846H10.0853H10.0859H10.0865H10.0872H10.0878H10.0884H10.089H10.0897H10.0903H10.0909H10.0915H10.0921H10.0928H10.0934H10.094H10.0946H10.0952H10.0958H10.0964H10.097H10.0976H10.0982H10.0988H10.0994H10.1C10.1403 18.95 10.1798 18.9468 10.2184 18.9407L13.0521 21.5854L13.1279 21.6288C14.3639 22.3351 15.75 21.4114 15.75 20.0776V17.3867L17.0353 18.5691L17.084 18.6016C17.668 18.991 18.3567 18.9149 18.8529 18.6254C19.3547 18.3327 19.75 17.7758 19.75 17.0776V4.87756C19.75 3.36335 18.5142 2.12756 17 2.12756H11C9.48579 2.12756 8.25 3.36335 8.25 4.87756ZM14.25 20.0776V15.6798V15.675V7.87756C14.25 7.19178 13.6858 6.62756 13 6.62756H9H7C6.57044 6.62756 6.27075 6.76748 6.08033 6.95789C5.88991 7.14831 5.75 7.448 5.75 7.87756V20.0776C5.75 20.2165 5.81411 20.2984 5.87746 20.3369C5.92501 20.3659 5.98885 20.3819 6.0695 20.3535L9.03303 17.5875L9.08397 17.5535C9.6359 17.1856 10.3641 17.1856 10.916 17.5535L10.967 17.5875L13.9305 20.3535C14.0112 20.3819 14.075 20.3659 14.1225 20.3369C14.1859 20.2984 14.25 20.2165 14.25 20.0776Z" fill="black"/>
</svg>

<svg xmlns="http://www.w3.org/2000/svg" fill="none" viewBox="0 0 24 24">
  <path fill="#000" fill-rule="evenodd" d="M11 3.628c-.686 0-1.25.564-1.25 1.25v.25H13a2.756 2.756 0 0 1 2.75 2.75v7.47l2.19 2.016c.03.008.083.009.157-.034a.29.29 0 0 0 .153-.252v-12.2c0-.686-.564-1.25-1.25-1.25h-6Zm-2.75 1.25v.25H7c-.77 0-1.47.26-1.98.77-.51.509-.77 1.21-.77 1.98v12.2c0 1.333 1.386 2.257 2.622 1.55l.076-.043 2.824-2.635h.328c.04 0 .08-.003.118-.01l2.834 2.645.076.044c1.236.706 2.622-.218 2.622-1.551v-2.691l1.285 1.182.049.033c.584.389 1.273.313 1.769.023a1.79 1.79 0 0 0 .897-1.547v-12.2A2.756 2.756 0 0 0 17 2.128h-6a2.756 2.756 0 0 0-2.75 2.75Zm6 15.2v-12.2c0-.686-.564-1.25-1.25-1.25H7c-.43 0-.73.14-.92.33-.19.19-.33.49-.33.92v12.2c0 .139.064.22.127.259a.215.215 0 0 0 .192.017l2.964-2.767.051-.034a1.658 1.658 0 0 1 1.832 0l.051.034 2.963 2.767a.219.219 0 0 0 .193-.017c.063-.039.127-.12.127-.26Z" clip-rule="evenodd"/>
</svg>
